icons/Image_filled.svg

<svg width="24" height="24" viewBox="0 0 24 24" fill="none" xmlns="http://www.w3.org/2000/svg">
<path fill-rule="evenodd" clip-rule="evenodd" d="M3.25,5c0,-0.9665 0.7835,-1.75 1.75,-1.75h14c0.9665,0 1.75,0.7835 1.75,1.75v11v3c0,0.9665 -0.7835,1.75 -1.75,1.75h-14c-0.9665,0 -1.75,-0.7835 -1.75,-1.75v-3zM19.25,5c0,-0.13807 -0.1119,-0.25 -0.25,-0.25h-14c-0.13807,0 -0.25,0.11193 -0.25,0.25v9.1893l3.24263,-3.2426c1.10709,-1.10708 2.91377,-1.06782 3.97167,0.0863l1.8853,2.0567l0.2059,-0.2058c1.0739,-1.074 2.8151,-1.074 3.889,0l1.3055,1.3054zM13,8.5c0,-0.82843 0.6716,-1.5 1.5,-1.5c0.8284,0 1.5,0.67157 1.5,1.5c0,0.82843 -0.6716,1.5 -1.5,1.5c-0.8284,0 -1.5,-0.67157 -1.5,-1.5z" fill="#002B51"/>
</svg>

<svg width="24" height="24" viewBox="0 0 24 24" fill="none" xmlns="http://www.w3.org/2000/svg">
<path fill-rule="evenodd" clip-rule="evenodd" d="M3.25 5C3.25 4.0335 4.0335 3.25 5 3.25H19C19.9665 3.25 20.75 4.0335 20.75 5V16V19C20.75 19.9665 19.9665 20.75 19 20.75H5C4.0335 20.75 3.25 19.9665 3.25 19V16V5ZM19.25 14.1893L17.9445 12.8839C16.8706 11.8099 15.1294 11.8099 14.0555 12.8839L13.8496 13.0897L11.9643 11.033C10.9064 9.87888 9.09972 9.83962 7.99263 10.9467L4.75 14.1893V5C4.75 4.86193 4.86193 4.75 5 4.75H19C19.1381 4.75 19.25 4.86193 19.25 5V14.1893ZM13 8.5C13 7.67157 13.6716 7 14.5 7C15.3284 7 16 7.67157 16 8.5C16 9.32843 15.3284 10 14.5 10C13.6716 10 13 9.32843 13 8.5Z" fill="#002B51"/>
</svg>
